resources/haticons/SVG/comment.svg

<!-- Generated by IcoMoon.io -->
<svg version="1.1" xmlns="http://www.w3.org/2000/svg" width="24" height="24" viewBox="0 0 24 24">
<title>comment</title>
<path d="M18 8.016v-2.016h-12v2.016h12zM18 11.016v-2.016h-12v2.016h12zM18 14.016v-2.016h-12v2.016h12zM21.984 3.984v18l-3.984-3.984h-14.016q-0.797 0-1.383-0.609t-0.586-1.406v-12q0-0.797 0.586-1.383t1.383-0.586h16.031q0.797 0 1.383 0.586t0.586 1.383z"></path>
</svg>

<svg xmlns="http://www.w3.org/2000/svg" width="24" height="24"><path d="M18 8.016V6H6v2.016h12zm0 3V9H6v2.016h12zm0 3V12H6v2.016h12zm3.984-10.032v18L18 18H3.984q-.797 0-1.383-.609t-.586-1.406v-12q0-.797.586-1.383t1.383-.586h16.031q.797 0 1.383.586t.586 1.383z"/></svg>
